X: 107
T: Castle Kelly
R:reel
M:C|
L:1/8
K:Ador
"Am"A2 cA ~A2 cA|"G" G2 EG ~G2 EG| "Am"A2 cA "G"GAcd |"Am" ecdB cAAG|
"Am"A2 cA ~A2 cA|"G"G2 EG ~G2 EG|"Am"A2 cA "G"GAcd|"Am"ecdB cA A2:||
|:"Am"agec "G(D)"d2 ed|"Am"cAGE "G"~G4|"Am"agec "G(D)"d2 cd|"Am"eaag ~a3 b|
"Am"agec "G(D)"d2 ed|"Am"cAGE "G"G2 EG|"Am"A2 cA "G"GAcd|"Am"ecdB cAA2:|


